X: 11501
T: Eddie Kelly's
R: jig
M: 6/8
K: Eminor
BEF G2A|Bee dBA|BEF G2B|AFD AFD|
BEF G2A|Bee dBA|BEF G2B|AFD E3:|
gfe fed|Bee Bee|gfe fed|Bed e2f|
[1 gfe fed|e3 dBA|BEF G2B|AFD E3:|
[2 g3 a3|bge dBA|BEF G2B|AFD E3||

